packages/dnb-ui-lib/assets/icons/file_add.svg

<svg width="16" height="16" viewBox="0 0 16 16" fill="none" xmlns="http://www.w3.org/2000/svg">
<path d="M11.3832 9.44993V13.3166M9.44983 11.3832H13.3165M4.89282 13.3166H1.71665C1.18278 13.3166 0.749994 12.8838 0.749994 12.3499V1.71665C0.749994 1.18278 1.18278 0.749994 1.71665 0.749994H8.5664C8.8226 0.750049 9.06829 0.851804 9.24951 1.0329L11.1003 2.88373C11.2814 3.06495 11.3832 3.31065 11.3832 3.56684V4.89282M11.3834 15.2499C13.5189 15.2499 15.25 13.5187 15.25 11.3832C15.25 9.24776 13.5189 7.51661 11.3834 7.51661C9.24788 7.51661 7.51673 9.24776 7.51673 11.3832C7.51673 13.5187 9.24788 15.2499 11.3834 15.2499Z" stroke="black" stroke-width="1.5" stroke-linecap="round" stroke-linejoin="round"/>
</svg>

<svg width="16" height="16" viewBox="0 0 16 16" fill="none" xmlns="http://www.w3.org/2000/svg"><path d="M11.383 9.45v3.867M9.45 11.383h3.867m-8.424 1.934H1.717a.967.967 0 01-.967-.967V1.717c0-.534.433-.967.967-.967h6.85c.256 0 .501.102.683.283l1.85 1.85a.966.966 0 01.283.684v1.326m0 10.357a3.867 3.867 0 100-7.733 3.867 3.867 0 000 7.733z" stroke="#000" stroke-width="1.5" stroke-linecap="round" stroke-linejoin="round"/></svg>
